src/images/Logo-desktop.svg

<svg width="437" height="58" viewBox="0 0 437 58" fill="none" xmlns="http://www.w3.org/2000/svg">
<path d="M21.5264 25.3125L30.7771 36L29.0536 50.25H18.5014L0 28.875L0.844173 21.75L24.5514 0.375H35.1035L33.38 14.625L21.5264 25.3125Z" fill="url(#paint0_linear_50_336)"/>
<path d="M50.5448 18.1875L45.7612 57.375L33.4503 43.125L38.6209 0.375H56.2078L62.3632 7.5L70.2774 0.375H87.8643L81.8144 50.25H67.7448L71.6491 18.1875L70.1015 16.4062L68.1318 18.1875L64.2275 50.25H50.1579L54.0622 18.1875L52.5146 16.4062L50.5448 18.1875Z" fill="url(#paint1_linear_50_336)"/>
<path d="M103.306 18.1875H134.962L126.169 32.4375H101.547L101.125 36H129.264L141.61 50.25H85.3318L91.3817 0.375H147.66L131.867 14.625H103.728L103.306 18.1875Z" fill="url(#paint2_linear_50_336)"/>
<path d="M156.066 18.1875L151.283 57.375L138.972 43.125L144.142 0.375H161.729L167.885 7.5L175.799 0.375H193.386L187.336 50.25H173.266L177.171 18.1875L175.623 16.4062L173.653 18.1875L169.749 50.25H155.679L159.584 18.1875L158.036 16.4062L156.066 18.1875Z" fill="url(#paint3_linear_50_336)"/>
<path d="M229.931 18.1875L226.836 14.625H212.767L208.827 18.1875L207.068 32.4375L210.164 36H224.233L228.173 32.4375L229.931 18.1875ZM239.112 0.375L245.267 7.5L240.976 43.125L233.062 50.25H197.888L191.733 43.125L196.024 7.5L203.938 0.375H239.112Z" fill="url(#paint4_linear_50_336)"/>
<path d="M262.01 14.625L261.131 21.75H278.718L282.692 18.1875L279.597 14.625H262.01ZM259.407 36L257.684 50.25H243.614L249.664 0.375H291.873L298.028 7.5L295.46 28.875L287.546 36H285.893L298.239 50.25H278.331L265.985 36H259.407Z" fill="url(#paint5_linear_50_336)"/>
<path d="M335.453 18.1875L337.599 0.375H351.668L348.221 28.875L340.307 36H329.755L327.152 57.375L314.841 43.125L315.685 36H305.133L298.978 28.875L302.425 0.375H316.494L314.349 18.1875L317.409 21.75H331.478L335.453 18.1875Z" fill="url(#paint6_linear_50_336)"/>
<path d="M359.09 50.25H349.136L350.367 40.1681L394.475 0.375H404.429L403.198 10.4569L359.09 50.25Z" fill="url(#paint7_linear_50_336)"/>
<path d="M415.474 25.3125L406.223 14.625L407.946 0.375H418.499L437 21.75L436.156 28.875L412.449 50.25H401.896L403.62 36L415.474 25.3125Z" fill="url(#paint8_linear_50_336)"/>
<defs>
<linearGradient id="paint0_linear_50_336" x1="52.5077" y1="14.1797" x2="384.47" y2="17.4008" gradientUnits="userSpaceOnUse">
<stop offset="0.00833321" stop-color="#5C03BC"/>
<stop offset="0.53125" stop-color="#E536AB"/>
<stop offset="0.898958" stop-color="#F4E5F0"/>
</linearGradient>
<linearGradient id="paint1_linear_50_336" x1="52.5077" y1="14.1797" x2="384.47" y2="17.4008" gradientUnits="userSpaceOnUse">
<stop offset="0.00833321" stop-color="#5C03BC"/>
<stop offset="0.53125" stop-color="#E536AB"/>
<stop offset="0.898958" stop-color="#F4E5F0"/>
</linearGradient>
<linearGradient id="paint2_linear_50_336" x1="52.5077" y1="14.1797" x2="384.47" y2="17.4008" gradientUnits="userSpaceOnUse">
<stop offset="0.00833321" stop-color="#5C03BC"/>
<stop offset="0.53125" stop-color="#E536AB"/>
<stop offset="0.898958" stop-color="#F4E5F0"/>
</linearGradient>
<linearGradient id="paint3_linear_50_336" x1="52.5077" y1="14.1797" x2="384.47" y2="17.4008" gradientUnits="userSpaceOnUse">
<stop offset="0.00833321" stop-color="#5C03BC"/>
<stop offset="0.53125" stop-color="#E536AB"/>
<stop offset="0.898958" stop-color="#F4E5F0"/>
</linearGradient>
<linearGradient id="paint4_linear_50_336" x1="52.5077" y1="14.1797" x2="384.47" y2="17.4008" gradientUnits="userSpaceOnUse">
<stop offset="0.00833321" stop-color="#5C03BC"/>
<stop offset="0.53125" stop-color="#E536AB"/>
<stop offset="0.898958" stop-color="#F4E5F0"/>
</linearGradient>
<linearGradient id="paint5_linear_50_336" x1="52.5077" y1="14.1797" x2="384.47" y2="17.4008" gradientUnits="userSpaceOnUse">
<stop offset="0.00833321" stop-color="#5C03BC"/>
<stop offset="0.53125" stop-color="#E536AB"/>
<stop offset="0.898958" stop-color="#F4E5F0"/>
</linearGradient>
<linearGradient id="paint6_linear_50_336" x1="52.5077" y1="14.1797" x2="384.47" y2="17.4008" gradientUnits="userSpaceOnUse">
<stop offset="0.00833321" stop-color="#5C03BC"/>
<stop offset="0.53125" stop-color="#E536AB"/>
<stop offset="0.898958" stop-color="#F4E5F0"/>
</linearGradient>
<linearGradient id="paint7_linear_50_336" x1="52.5077" y1="14.1797" x2="384.47" y2="17.4008" gradientUnits="userSpaceOnUse">
<stop offset="0.00833321" stop-color="#5C03BC"/>
<stop offset="0.53125" stop-color="#E536AB"/>
<stop offset="0.898958" stop-color="#F4E5F0"/>
</linearGradient>
<linearGradient id="paint8_linear_50_336" x1="52.5077" y1="14.1797" x2="384.47" y2="17.4008" gradientUnits="userSpaceOnUse">
<stop offset="0.00833321" stop-color="#5C03BC"/>
<stop offset="0.53125" stop-color="#E536AB"/>
<stop offset="0.898958" stop-color="#F4E5F0"/>
</linearGradient>
</defs>
</svg>

<svg xmlns="http://www.w3.org/2000/svg" width="437" height="58" fill="none"><path fill="url(#a)" d="M21.526 25.313 30.777 36l-1.723 14.25H18.5L0 28.875l.844-7.125L24.551.375h10.552l-1.723 14.25-11.854 10.688Z"/><path fill="url(#b)" d="M50.545 18.188 45.76 57.374l-12.31-14.25L38.62.375h17.587L62.363 7.5 70.277.375h17.587l-6.05 49.875h-14.07l3.905-32.063-1.547-1.78-1.97 1.78-3.904 32.063h-14.07l3.904-32.063-1.547-1.78-1.97 1.78Z"/><path fill="url(#c)" d="M103.306 18.188h31.656l-8.793 14.25h-24.622L101.125 36h28.139l12.346 14.25H85.332L91.382.375h56.278l-15.793 14.25h-28.139l-.422 3.563Z"/><path fill="url(#d)" d="m156.066 18.188-4.783 39.187-12.311-14.25 5.17-42.75h17.587l6.156 7.125 7.914-7.125h17.587l-6.05 49.875h-14.07l3.905-32.063-1.548-1.78-1.97 1.78-3.904 32.063h-14.07l3.905-32.063-1.548-1.78-1.97 1.78Z"/><path fill="url(#e)" d="m229.931 18.188-3.095-3.563h-14.069l-3.94 3.563-1.759 14.25L210.164 36h14.069l3.94-3.563 1.758-14.25ZM239.112.375l6.155 7.125-4.291 35.625-7.914 7.125h-35.174l-6.155-7.125L196.024 7.5l7.914-7.125h35.174Z"/><path fill="url(#f)" d="m262.01 14.625-.879 7.125h17.587l3.974-3.563-3.095-3.562H262.01ZM259.407 36l-1.723 14.25h-14.07l6.05-49.875h42.209l6.155 7.125-2.568 21.375L287.546 36h-1.653l12.346 14.25h-19.908L265.985 36h-6.578Z"/><path fill="url(#g)" d="M335.453 18.188 337.599.375h14.069l-3.447 28.5L340.307 36h-10.552l-2.603 21.375-12.311-14.25.844-7.125h-10.552l-6.155-7.125 3.447-28.5h14.069l-2.145 17.813 3.06 3.562h14.069l3.975-3.563Z"/><path fill="url(#h)" d="M359.09 50.25h-9.954l1.231-10.082L394.475.375h9.954l-1.231 10.082L359.09 50.25Z"/><path fill="url(#i)" d="m415.474 25.313-9.251-10.688 1.723-14.25h10.553L437 21.75l-.844 7.125-23.707 21.375h-10.553L403.62 36l11.854-10.688Z"/><defs><linearGradient id="a" x1="52.508" x2="384.47" y1="14.18" y2="17.401" gradientUnits="userSpaceOnUse"><stop offset=".008" stop-color="#5C03BC"/><stop offset=".531" stop-color="#E536AB"/><stop offset=".899" stop-color="#F4E5F0"/></linearGradient><linearGradient id="b" x1="52.508" x2="384.47" y1="14.18" y2="17.401" gradientUnits="userSpaceOnUse"><stop offset=".008" stop-color="#5C03BC"/><stop offset=".531" stop-color="#E536AB"/><stop offset=".899" stop-color="#F4E5F0"/></linearGradient><linearGradient id="c" x1="52.508" x2="384.47" y1="14.18" y2="17.401" gradientUnits="userSpaceOnUse"><stop offset=".008" stop-color="#5C03BC"/><stop offset=".531" stop-color="#E536AB"/><stop offset=".899" stop-color="#F4E5F0"/></linearGradient><linearGradient id="d" x1="52.508" x2="384.47" y1="14.18" y2="17.401" gradientUnits="userSpaceOnUse"><stop offset=".008" stop-color="#5C03BC"/><stop offset=".531" stop-color="#E536AB"/><stop offset=".899" stop-color="#F4E5F0"/></linearGradient><linearGradient id="e" x1="52.508" x2="384.47" y1="14.18" y2="17.401" gradientUnits="userSpaceOnUse"><stop offset=".008" stop-color="#5C03BC"/><stop offset=".531" stop-color="#E536AB"/><stop offset=".899" stop-color="#F4E5F0"/></linearGradient><linearGradient id="f" x1="52.508" x2="384.47" y1="14.18" y2="17.401" gradientUnits="userSpaceOnUse"><stop offset=".008" stop-color="#5C03BC"/><stop offset=".531" stop-color="#E536AB"/><stop offset=".899" stop-color="#F4E5F0"/></linearGradient><linearGradient id="g" x1="52.508" x2="384.47" y1="14.18" y2="17.401" gradientUnits="userSpaceOnUse"><stop offset=".008" stop-color="#5C03BC"/><stop offset=".531" stop-color="#E536AB"/><stop offset=".899" stop-color="#F4E5F0"/></linearGradient><linearGradient id="h" x1="52.508" x2="384.47" y1="14.18" y2="17.401" gradientUnits="userSpaceOnUse"><stop offset=".008" stop-color="#5C03BC"/><stop offset=".531" stop-color="#E536AB"/><stop offset=".899" stop-color="#F4E5F0"/></linearGradient><linearGradient id="i" x1="52.508" x2="384.47" y1="14.18" y2="17.401" gradientUnits="userSpaceOnUse"><stop offset=".008" stop-color="#5C03BC"/><stop offset=".531" stop-color="#E536AB"/><stop offset=".899" stop-color="#F4E5F0"/></linearGradient></defs></svg>
